X: 162164
T: Postman's Whistle
C: Joe Liddy
Z: BB
S: "The Leitrim Fiddler" (Dublin 1981)
L: 1/8
M: 4/4
R: reel
Q: 1/4 = 170
K: Ador
AB | cAeA fAeA | ^cAec dBGB | =cAeA fdef | gedc BAGB |
A2 eA cAeA | fAec dBGB | cdec BcdB | AcBG A2 :|
BA | c2 cB cdef | gage dBGB | cBAG ABcd | efge a2 bg |
aged cAGA | cedc AGEG | cdec BcdB | AcBG A2 ||
BA | c2 cB cdec | dedB GABG | ABcB cdef | gedc d2 cd |
eage dged | cAge dBGB | cdec BcdB | AcBG A4 ||
%%%%%%%%%%%%%%%%%%%%%%%%%%%%%%%
